X:1
T:J.P. Sweelinck
T:psaume 44 Or avons nous de nos oreilles
%%score [ 1 2 3 4 ]
L:1/8
M:4/2
K:C
V:1 treble nm="Sopraan" snm="S."
V:2 treble nm="Alt" snm="A."
V:3 treble-8 nm="Tenor" snm="T."
V:4 bass nm="Bas" snm="B."
V:1
 G6 G2 A4 B4 | c4 c3 B A4 G4 | E6 E2 ^F4 G4 | z4 C6 C2 D4 | E2 G2 G3 G ^F4 G4- | G8 z4 G4 | %6
w: Or a- vons nous|de nos o- reil- les,|nos o- reil- les,|or a- vons|nous de nos o- reil- les|* Sei-|
 F4 E2 G2 D4 F2 E2 | D4 C4 C4 G4 | A2 FG A2 B2 c4 c4 | B8 A8 | G6 A4 G4 ^F2 | G4 c4 B4 A4 | %12
w: gneur, en- ten- du tes mer-|veil- les ra- con-|ter à nos pe- res vieux, fai-|ctes ja-|dis et de- vant|eux, fai- ctes ja-|
 d8 z2 d3 d d2 | B8 z8 | z8 z4 d4- | d2 e4 c4 c2 A2 B2 | c2 d3 cBA GABc d2 cB | A8 z8 | %18
w: dis et de- vant|eux.|Ta|* main a les peu- ples|chas- sés, * * * * * * * * * *||
 z2 G2 F2 D2 A6 A2 | G2 F2 E4 D4 z2 G2 | A2 B2 G2 G2 A4 c4 | B8 z4 c4- | c2 c2 c2 A2 G4 z4 | %23
w: plan- tant nos pe- res|en leur pla- ce: Tu|as les peu- ples op- pres-|sés, y|* fai- sant ger- mer,|
 z4 d2 d2 d2 B2 A4 | B2 c2 d4 c8 | z8 z4 c2 c2 | c2 A2 G4 ^F2 G2 A4 | G4 z2 G2 A2 B2 G2 G2 | %28
w: y fai- sant ger- mer|no- stre ra- ce|y fai-|sant ger- mer no- stre ra-|ce, tu as les peu- ples|
 A4 c4 B8 | z4 c6 c2 c2 A2 | G4 z4 z4 d2 d2 | d2 B2 A4 B2 c2 d4 | c8 z8 | z4 c2 c2 c2 A2 G4 | %34
w: op- pres- sés,|y fai- sant ger-|mer, y fai-|sant ger- mer no- stre ra-|ce,|y fai- sant ger- mer|
 ^F2 G2 A4 D4 E4 | A4 G6 ^FE F4 | G8 |] %37
w: no- stre ra- ce, no-|stre ra- * * *|ce.|
V:2
 z8 C6 C2 | D4 E4 C4 C3 B, | A,4 G,4 z8 | E6 E2 ^F4 G6 | z2 E2 E3 D D4 B,4 | z8 z8 | %6
w: or a-|vons nous de nos o-|reil- les,|or a- vons nous|de os o- reil- les,||
 z2 D2 C4 B,2 D2 A,2 C2- | C2 B,2 A,8 G,4 | z2 A,2 D4 E2 CD E2 E2 | D2 B,C D2 E2 F4 F4 | %10
w: Se- gneur, en- ten- du tes|* mer- veil- les|ra- con- ter à nos pe- res|vieux, à nos pe- res vieux, fai-|
 E6 A,2 D2 E4 C2 | D2 E4 DC D2 G2 F2 E2 | D4 z2 A4 G4 ^F2 | G8 z8 | z8 z8 | G4 A4 F4 F2 D2 | %16
w: ctes ja- dis et de|vant eux, * * * fai- ctes ja-|dis et de- vant|eux.||Ta main a les peu-|
 E2 F2 G3 F E2 DC B,2 C2 | D2 F2 E2 C2 C2 C2 B,2 A,2 | E4 A,2 F2 F2 D2 C2 A,2 | B,2 D2 ^C4 D4 B,4 | %20
w: ples chas- sés, * * * * * *|* plan- tant nos pe- res en leur|pla- ce, plan- tant nos pe- res|en leur pla- ce: Tu|
 A,2 G,2 D2 E2 F6 E2 | G4 G6 G2 G4- | G4 z4 z4 G2 G2 | G2 ^F2 G4 z4 E2 F2 | G4 G4 E6 E2 | %25
w: as les peu- ples op- pres-|sés, y fai- sant,|* y fai-|sant ger- mer nos- tre|ra- ce, y fai-|
 E6 D2 E4 E4 | E2 D3 ^C/B,/ C2 D4 z2 D2- | DCB,A, B,4 A,2 G,2 D2 E2 | F6 E2 G4 G4- | G2 G2 G8 z4 | %30
w: sant ger- mer no-|stre ra- * * * ce, tu|* * * * * as les peu- ples|op- pres- sés, y|* fai- sant|
 z4 G2 G2 G2 ^F2 G4 | z4 E2 ^F2 G4 G4 | E6 E2 E6 D2 | E4 E4 E2 D3 ^C/B,/ C2 | D4 z4 G2 G2 G2 E2 | %35
w: y fai- sant ger- mer|no- stre ra- ce,|y fai- sant ger-|mer no- stre ra- * * *|ce, y fai- sant ger-|
 D4 B,2 C2 D8 | B,8 |] %37
w: mer no- stre ra-|ce.|
V:3
 z8 z8 | z8 z8 | z16 | G6 G2 A4 B4 | c4 c3 B A4 G2 d2 | c4 B2 d2 A4 c2 B2 | A6 G2 z8 | z4 A8 G4 | %8
w: |||Or a- vons nous|de nos o- reil- les, Sei-|gneur, en- ten- du tes mer-|veil- les,|tes mer-|
 F8 E4 E4 | G8 A2 FG A2 B2 | c4 c4 B4 A4 | G4 z4 z4 c4 | B4 A4 B2 BB A4 | G4 d6 e4 c2- | %14
w: veil- les ra-|con- ter à nos pe- res|vieux, fai- ctes ja-|dis, fai-|ctes ja- dis et de- vant|eux. Ta main a|
 c2 c2 A2 B2 c2 d3 cBA | G4 z4 z8 | z8 z2 d2 c2 A2 | e2 f2 e2 d2 z8 | ^c4 d2 _B2 A2 F2 F2 F2 | %19
w: * les peu- ples chas- sés, * * *||plan- tant nos|pe- res en leur|pla- ce, plan- tant nos pe- res|
 E2 D2 A4 D4 d4 | d2 d2 B2 c2 c6 c2 | d8 e6 e2 | e6 f2 e4 e2 e2 | e2 c2 B2 Bc d4 c4 | %24
w: en leur pla- ce: Tu|as les peu- ples op- pres-|ses, y fai-|sant ger- mer, y fai-|sant ger- mer no- stre ra- ce,|
 d2 c2 B4 c4 c4- | c2 c2 c2 A2 G8 | z2 ^F2 G4 A2 G3 F/E/ F2 | G4 d4 d2 d2 B2 c2 | c6 c2 d8 | %29
w: no- stre ra- ce, y|* fai- sant ger- mer|no- stre ra- * * * *|ce, tu as les peu- ples|op- pres- sés,|
 e6 e2 e6 f2 | e4 e2 e2 e2 c2 B2 Bc | d4 c4 d2 c2 B4 | c4 c6 c2 c2 A2 | G8 z2 ^F2 G4 | %34
w: y fai- sant ger-|mer, y fai- sant ger- mer no- stre|ra- ce, no- stre ra-|ce, y fai- sant ger-|mer no- stre|
 A2 G3 ^F/E/ F2 G8 | ^F4 G4 A8 | G8 |] %37
w: ra- * * * * ce,|no- stre ra-|ce.|
V:4
 z8 z8 | C,6 C,2 D,4 E,4 | z16 | C,4 C,3 B,, A,,4 G,,4 | z2 C,2 E,3 G, D,4 G,,4 | %5
w: |Or a- vons nous||de nos o- reil- les,|de nos o- reil- les,|
 z4 G,4 F,4 E,2 G,2 | D,4 A,2 E,2 G,4 F,2 C,2 | G,4 A,2 F,G, A,2 B,2 C2 C,2 | F,8 G,8 | %9
w: Sei- gneur, en- ten-|du tes mer- veil- les ra-|con- ter à nos pe- res vieux, ra-|con- ter,|
 z4 G,,4 D,8 | E,2 C,D, E,2 F,2 G,4 C4 | B,4 A,4 G,4 A,4- | A,2 G,4 ^F,2 G,2 G,,2 D,4 | %13
w: ra- con-|ter à nos pe- res vieux, fai-|ctes ja- dis et|* de- vant eux, de- vant|
 G,,8 G,4 A,4 | F,4 F,2 D,2 E,2 F,2 G,4 | z8 z8 | z4 G,4 F,2 D,2 A,6 | z2 A,2 G,2 F,2 z8 | %18
w: eux. Ta main|a les peu- ples chas\- sés,||plan- tant nos pe-|res en leur|
 E,4 D,8 z4 | z8 z4 G,4 | ^F,2 G,2 G,2 C,2 =F,4 A,4 | G,8 C6 C2 | C8 C6 C2 | %23
w: pla- ce:|Tu|as les peu- ples op- pres-|sés, y fai-|sant, y fai-|
 C2 A,2 G,4 ^F,2 G,2 A,4 | G,8 z4 A,4- | A,2 A,2 A,2 F,2 E,4 C,4- | C,2 D,2 E,4 D,8 | %27
w: sant ger- mer nos- tre ra-|ce, y|* fai- sant ger- mer no-|* stre ra- ce,|
 z4 G,4 ^F,2 G,2 G,2 C,2 | F,4 A,4 G,8 | C6 C2 C8 | C6 C2 C2 A,2 G,4 | ^F,2 G,2 A,4 G,8 | %32
w: tu as les peu- ples|op- pres- sés,|y fai- sant,|y fai- sant ger- mer|no- stre ra- ce,|
 z4 A,6 A,2 A,2 F,2 | E,4 C,6 D,2 E,4 | D,8 B,,4 C,4 | D,8 G,,8 | z8 |] %37
w: y fai- sant ger-|mer no- stre ra-|ce, no- stre|ra- ce.||

